services/jupyterlab/conf/share/jupyter/jupyter_app_launcher/nb_venv_kernels_scan.svg

<?xml version="1.0" encoding="UTF-8" standalone="no"?>
<svg
   version="1.1"
   width="800px"
   height="800px"
   viewBox="-50 -50 472 467"
   xml:space="preserve"
   id="svg4"
   sodipodi:docname="nb_venv_kernels_scan.svg"
   inkscape:version="1.4.3 (0d15f75, 2025-12-25)"
   xmlns:inkscape="http://www.inkscape.org/namespaces/inkscape"
   xmlns:sodipodi="http://sodipodi.sourceforge.net/DTD/sodipodi-0.dtd"
   xmlns="http://www.w3.org/2000/svg"
   xmlns:svg="http://www.w3.org/2000/svg"><defs
   id="defs4"><linearGradient
   id="paint0_linear_87_8204"
   x1="12.4809"
   y1="2"
   x2="12.4809"
   y2="22.7407"
   gradientUnits="userSpaceOnUse"
   gradientTransform="matrix(6.1391472,0,0,6.1391472,174.3504,183.0797)"><stop
     stop-color="#327EBD"
     id="stop2"
     offset="0"
     style="stop-color:#8aa7b9;stop-opacity:1;" /><stop
     offset="1"
     stop-color="#1565A7"
     id="stop3" /></linearGradient><linearGradient
   id="paint1_linear_87_8204"
   x1="19.518999"
   y1="9.2592802"
   x2="19.518999"
   y2="30"
   gradientUnits="userSpaceOnUse"
   gradientTransform="matrix(6.1391472,0,0,6.1391472,174.3504,183.0797)"><stop
     stop-color="#FFDA4B"
     id="stop4"
     offset="0"
     style="stop-color:#d4c776;stop-opacity:1;" /><stop
     offset="1"
     stop-color="#F9C600"
     id="stop5" /></linearGradient>
  
  
  
  
</defs><sodipodi:namedview
   id="namedview4"
   pagecolor="#c5c5c5"
   bordercolor="#000000"
   borderopacity="0.25"
   inkscape:showpageshadow="2"
   inkscape:pageopacity="0.0"
   inkscape:pagecheckerboard="0"
   inkscape:deskcolor="#686868"
   inkscape:zoom="1.51625"
   inkscape:cx="511.45919"
   inkscape:cy="499.25804"
   inkscape:window-width="2560"
   inkscape:window-height="1494"
   inkscape:window-x="-11"
   inkscape:window-y="-11"
   inkscape:window-maximized="1"
   inkscape:current-layer="svg4" />
<path
   style="fill:#1d5584;fill-opacity:1"
   d="M -2.5020611,193.80147 C 4.6408629,193.40148 11.783788,193.40148 18.858224,193.40148 22.781222,143.90625 45.234443,103.78414 81.850928,72.031981 112.80757,45.187779 149.71664,32.500761 190.89247,34.51746 c 0,13.617012 0,26.95936 0,40.821604 -38.30469,-1.285355 -69.84968,12.838986 -94.939094,40.425736 -19.796341,21.76681 -32.725014,47.23421 -35.846936,77.51714 5.142262,0 9.592579,0 14.920186,0 -10.626404,22.09014 -20.962033,43.57582 -31.596806,65.68335 -6.956734,-9.59753 -13.393959,-18.57826 -19.937513,-27.48083 -8.373925,-11.39281 -16.8334961,-22.72264 -25.6252631,-34.0813 -0.369105,-1.06835 -0.369105,-2.13503 -0.369105,-3.60169 z"
   id="path1" /><g
   id="g5"
   transform="translate(-3.5020611,21.401484)"><path
     style="fill:#1d5584;fill-opacity:1"
     d="m 254.68919,290.98074 c 2.05947,-0.33807 3.63451,-0.86352 5.23244,-0.94623 7.91388,-0.40942 15.8363,-0.65313 23.75101,-1.04879 8.57785,-0.42887 17.15048,-0.96088 26.40246,-1.48636 -11.14746,24.27075 -21.96704,47.8277 -33.24612,72.38501 -3.48001,-5.91382 -6.64291,-10.79334 -9.26898,-15.94644 -1.45825,-2.86154 -2.71875,-3.40756 -5.64527,-1.98859 -15.70019,7.61261 -32.32336,11.98624 -49.72921,12.99079 -11.39711,0.6578 -22.92484,1.82818 -34.22443,0.83639 -25.53426,-2.24121 -50.05398,-8.3884 -72.57278,-21.53922 -13.180279,-7.69723 -25.427968,-16.418 -35.948102,-27.39965 -9.790092,-10.21964 -18.386947,-21.41382 -25.063915,-33.97962 -0.745369,-1.40277 -1.640892,-2.72577 -2.512199,-4.16055 10.761982,-5.74854 21.453056,-11.27136 31.936039,-17.1644 3.491043,-1.96249 5.152992,-1.67842 7.216598,1.94377 17.315941,30.39409 43.479099,48.92977 77.163189,57.60982 15.17395,3.91019 30.60856,5.0614 45.92973,3.60419 12.23883,-1.16407 24.26334,-4.89029 36.28126,-7.88718 3.78826,-0.94464 3.17228,-4.27075 1.77924,-7.08661 -1.21199,-2.44986 -2.62944,-4.79809 -4.80336,-8.7196 6.26642,0 11.55746,0 17.3224,-0.0167 z"
     id="path3" /><path
     style="fill:#1d5584;fill-opacity:1"
     d="M 244.74359,66.245499 C 237.37552,55.801437 230.26866,45.619995 222.59393,34.625027 248.9527,31.51058 274.6709,28.471817 302.03146,25.239 c -3.51043,6.709002 -6.67303,12.75329 -10.02591,19.16115 4.47437,3.5369 9.52063,6.849575 13.74253,11.000672 9.47909,9.320102 19.42303,18.370891 27.58667,28.779232 13.26489,16.912306 23.11423,36.024256 28.92178,56.775606 3.24854,11.60763 4.84338,23.71502 6.6311,35.67975 0.96903,6.48539 1.30329,13.16716 1.01291,19.71995 -0.82791,18.68378 -4.14404,36.91185 -11.80569,54.13168 -2.80466,6.30361 -5.93744,12.46148 -8.72931,18.77044 -1.31387,2.96908 -2.98712,3.57043 -5.72937,1.92056 -9.91031,-5.96256 -19.79385,-11.97375 -29.81766,-17.74034 -2.31015,-1.32901 -1.94134,-2.0564 -0.8147,-4.03882 8.11396,-14.27736 13.08368,-29.53102 15.09989,-45.9324 3.29577,-26.81058 -3.4372,-51.45298 -15.36005,-74.95995 -7.02438,-13.84919 -16.45209,-26.13409 -27.70447,-36.895042 -3.28265,-3.139251 -7.0664,-5.751724 -10.58969,-8.643181 -2.11248,-1.73368 -3.35861,-1.115371 -4.50903,1.200318 -1.55261,3.125244 -3.39911,6.104477 -5.54923,9.906189 -6.85659,-9.749825 -13.12152,-18.658257 -19.64764,-27.829315 z"
     id="path4" /><path
     id="use3"
     d="m 206.36087,83.460383 h -21.96434 c -6.75827,10.55976 -7.18066,21.541947 -7.60304,31.256937 l -21.11957,8.44781 c -6.33587,-8.8702 -13.09413,-12.67174 -27.87782,-18.1628 l -15.62847,15.62847 c 5.4911,14.78369 9.2926,21.54195 18.1628,27.87782 l -8.44781,21.11957 c -9.71499,0.42238 -20.69718,0.84477 -31.256937,7.60304 v 21.96434 c 10.559757,6.75826 21.541947,7.18065 31.256937,7.60304 l 8.44781,21.11956 c -8.8702,6.33587 -12.6717,13.09413 -18.1628,27.87782 l 15.62847,15.62847 c 14.78369,-5.49109 21.54195,-9.2926 27.87782,-18.16284 l 21.11957,8.44785 c 0.42238,9.71499 0.84477,20.69714 7.60304,31.25694 h 21.96434 c 6.75826,-10.5598 7.18065,-21.54195 7.60304,-31.25694 l 21.11956,-8.44785 c 6.33587,8.87024 13.09413,12.67175 27.87782,18.16284 l 15.62847,-15.62847 c -5.49109,-14.78369 -9.2926,-21.54195 -18.1628,-27.87782 l 8.44781,-21.11956 c 9.71499,-0.42239 20.69718,-0.84478 31.25694,-7.60304 v -21.96434 c -10.55976,-6.75827 -21.54195,-7.18066 -31.25694,-7.60304 l -8.44781,-21.11957 c 8.8702,-6.33587 12.67171,-13.09413 18.1628,-27.87782 l -15.62847,-15.62847 c -14.78369,5.49106 -21.54195,9.2926 -27.87782,18.1628 l -21.11956,-8.44781 c -0.42239,-9.71499 -0.84478,-20.697177 -7.60304,-31.256937 z m -10.98216,70.961727 c 18.5852,0 33.79127,15.20608 33.79127,33.79127 0,18.58523 -15.20607,33.7913 -33.79127,33.7913 -18.58522,0 -33.7913,-15.20607 -33.7913,-33.7913 0,-18.58519 15.20608,-33.79127 33.7913,-33.79127 z"
     style="fill:#44576b;fill-opacity:1;stroke-width:0.422393" /></g><g
   id="g1"
   transform="translate(20.234126,21.012366)"><path
     fill-rule="evenodd"
     clip-rule="evenodd"
     d="m 254.25998,195.35797 c -13.48834,0 -24.42246,10.58715 -24.42246,23.64707 v 16.37108 h 42.26956 v 4.54752 h -61.05603 c -13.48811,0 -24.42238,10.5872 -24.42238,23.64701 v 35.47076 c 0,13.05981 10.93427,23.64677 24.42238,23.64677 h 14.08984 v -20.00871 c 0,-13.05981 10.9343,-23.64737 24.42265,-23.64737 h 45.08711 c 11.41327,0 20.66499,-8.95826 20.66499,-20.00871 v -40.01835 c 0,-13.05992 -10.93383,-23.64707 -24.42214,-23.64707 z m -5.63576,29.10412 c 4.66884,0 8.45363,-3.66484 8.45363,-8.18552 0,-4.52074 -3.78479,-8.18557 -8.45363,-8.18557 -4.66942,0 -8.45421,3.66483 -8.45421,8.18557 0,4.52068 3.78479,8.18552 8.45421,8.18552 z"
     fill="url(#paint0_linear_87_8204)"
     id="path1-0"
     style="fill:url(#paint0_linear_87_8204);stroke:#576aa7;stroke-width:0.535465;stroke-dasharray:none;stroke-opacity:1" /><path
     fill-rule="evenodd"
     clip-rule="evenodd"
     d="m 290.89225,367.25409 c 13.48834,0 24.42276,-10.58695 24.42276,-23.64675 v -16.37129 h -42.26985 v -4.54724 h 61.05627 c 13.48832,0 24.42212,-10.58759 24.42212,-23.6474 v -35.47076 c 0,-13.05981 -10.9338,-23.64687 -24.42212,-23.64687 h -14.08997 v 20.00883 c 0,13.0604 -10.93443,23.64736 -24.42213,23.64736 h -45.08775 c -11.41328,0 -20.66502,8.95823 -20.66502,20.00873 v 40.01864 c 0,13.0598 10.93448,23.64675 24.42216,23.64675 z m 5.63636,-29.10383 c -4.66943,0 -8.45423,3.66444 -8.45423,8.18531 0,4.52085 3.7848,8.18533 8.45423,8.18533 4.66882,0 8.45361,-3.66448 8.45361,-8.18533 0,-4.52087 -3.78479,-8.18531 -8.45361,-8.18531 z"
     fill="url(#paint1_linear_87_8204)"
     id="path2"
     style="fill:url(#paint1_linear_87_8204);stroke:#968f0d;stroke-width:0.535465;stroke-dasharray:none;stroke-opacity:1" /></g>
</svg>

<?xml version="1.0" encoding="UTF-8" standalone="no"?>
<svg
   version="1.1"
   width="800px"
   height="800px"
   viewBox="-50 -50 472 467"
   xml:space="preserve"
   id="svg4"
   sodipodi:docname="nb_venv_kernels_scan.svg"
   inkscape:version="1.4.3 (0d15f75, 2025-12-25)"
   xmlns:inkscape="http://www.inkscape.org/namespaces/inkscape"
   xmlns:sodipodi="http://sodipodi.sourceforge.net/DTD/sodipodi-0.dtd"
   xmlns="http://www.w3.org/2000/svg"
   xmlns:svg="http://www.w3.org/2000/svg"><defs
   id="defs4"><linearGradient
     id="paint0_linear_87_8204"
     x1="12.4809"
     y1="2"
     x2="12.4809"
     y2="22.7407"
     gradientUnits="userSpaceOnUse"
     gradientTransform="matrix(6.1391472,0,0,6.1391472,174.3504,183.0797)"><stop
       stop-color="#327EBD"
       id="stop2"
       offset="0"
       style="stop-color:#5b7d94;stop-opacity:1;" /><stop
       offset="1"
       stop-color="#1565A7"
       id="stop3" /></linearGradient><linearGradient
     id="paint1_linear_87_8204"
     x1="19.518999"
     y1="9.2592802"
     x2="19.518999"
     y2="30"
     gradientUnits="userSpaceOnUse"
     gradientTransform="matrix(6.1391472,0,0,6.1391472,174.3504,183.0797)"><stop
       stop-color="#FFDA4B"
       id="stop4"
       offset="0"
       style="stop-color:#d4c776;stop-opacity:1;" /><stop
       offset="1"
       stop-color="#F9C600"
       id="stop5" /></linearGradient></defs><sodipodi:namedview
   id="namedview4"
   pagecolor="#c5c5c5"
   bordercolor="#000000"
   borderopacity="0.25"
   inkscape:showpageshadow="2"
   inkscape:pageopacity="0.0"
   inkscape:pagecheckerboard="0"
   inkscape:deskcolor="#686868"
   inkscape:zoom="1.51625"
   inkscape:cx="399.67024"
   inkscape:cy="514.42704"
   inkscape:window-width="2560"
   inkscape:window-height="1494"
   inkscape:window-x="-11"
   inkscape:window-y="-11"
   inkscape:window-maximized="1"
   inkscape:current-layer="g4" />
<g
   id="g4">
  <path
   style="fill:#1d5584;fill-opacity:1"
   d="M1.000000,172.399994 C8.142924,172.000000 15.285849,172.000000 22.360285,172.000000 C26.283283,122.504768 48.736504,82.382660 85.352989,50.630497 C116.309631,23.786295 153.218704,11.099277 194.394531,13.115976 C194.394531,26.732988 194.394531,40.075336 194.394531,53.937580 C156.089844,52.652225 124.544853,66.776566 99.455437,94.363312 C79.659096,116.130127 66.730423,141.597534 63.608501,171.880463 C68.750763,171.880463 73.201080,171.880463 78.528687,171.880463 C67.902283,193.970596 57.566654,215.456284 46.931881,237.563812 C39.975147,227.966278 33.537922,218.985550 26.994368,210.082977 C18.620443,198.690170 10.160872,187.360336 1.369105,176.001678 C1.000000,174.933334 1.000000,173.866653 1.000000,172.399994 z"
   id="path1" />
  
  <path
   style="fill:#1d5584;fill-opacity:1"
   d="M254.689194,290.980743 C256.748657,290.642670 258.323700,290.117218 259.921631,290.034515 C267.835510,289.625092 275.757935,289.381378 283.672638,288.985718 C292.250488,288.556854 300.823120,288.024841 310.075104,287.499359 C298.927643,311.770111 288.108063,335.327057 276.828979,359.884369 C273.348969,353.970551 270.186066,349.091034 267.559998,343.937927 C266.101746,341.076385 264.841248,340.530365 261.914734,341.949341 C246.214539,349.561951 229.591370,353.935577 212.185516,354.940125 C200.788406,355.597931 189.260681,356.768311 177.961090,355.776520 C152.426834,353.535309 127.907112,347.388123 105.388313,334.237305 C92.208031,326.540070 79.960342,317.819305 69.440208,306.837646 C59.650116,296.618011 51.053261,285.423828 44.376293,272.858032 C43.630924,271.455261 42.735401,270.132263 41.864094,268.697479 C52.626076,262.948944 63.317150,257.426117 73.800133,251.533081 C77.291176,249.570587 78.953125,249.854660 81.016731,253.476852 C98.332672,283.870941 124.495827,302.406616 158.179916,311.086670 C173.353867,314.996857 188.788483,316.148071 204.109650,314.690857 C216.348480,313.526794 228.372986,309.800568 240.390915,306.803680 C244.179169,305.859039 243.563187,302.532928 242.170151,299.717072 C240.958160,297.267212 239.540710,294.918976 237.366791,290.997467 C243.633209,290.997467 248.924255,290.997467 254.689194,290.980743 z"
   id="path3" />
  <path
   style="fill:#1d5584;fill-opacity:1"
   d="M244.743591,66.245499 C237.375519,55.801437 230.268661,45.619995 222.593933,34.625027 C248.952698,31.510580 274.670898,28.471817 302.031464,25.239000 C298.521027,31.948002 295.358429,37.992290 292.005554,44.400150 C296.479919,47.937050 301.526184,51.249725 305.748077,55.400822 C315.227173,64.720924 325.171112,73.771713 333.334747,84.180054 C346.599640,101.092361 356.448975,120.204315 362.256531,140.955658 C365.505066,152.563293 367.099915,164.670685 368.887634,176.635406 C369.856659,183.120804 370.190918,189.802567 369.900543,196.355362 C369.072632,215.039139 365.756500,233.267212 358.094849,250.487045 C355.290192,256.790649 352.157410,262.948517 349.365540,269.257477 C348.051666,272.226562 346.378418,272.827911 343.636169,271.178040 C333.725861,265.215485 323.842316,259.204285 313.818512,253.437698 C311.508362,252.108688 311.877167,251.381302 313.003815,249.398880 C321.117767,235.121521 326.087494,219.867859 328.103699,203.466476 C331.399475,176.655899 324.666504,152.013504 312.743652,128.506531 C305.719269,114.657341 296.291565,102.372444 285.039185,91.611488 C281.756531,88.472237 277.972778,85.859764 274.449493,82.968307 C272.337006,81.234627 271.090881,81.852936 269.940460,84.168625 C268.387848,87.293869 266.541351,90.273102 264.391235,94.074814 C257.534637,84.324989 251.269714,75.416557 244.743591,66.245499 z"
   id="path4" />
<path
   id="use3"
   d="m 206.36087,83.460383 h -21.96434 c -6.75827,10.55976 -7.18066,21.541947 -7.60304,31.256937 l -21.11957,8.44781 c -6.33587,-8.8702 -13.09413,-12.67174 -27.87782,-18.1628 l -15.62847,15.62847 c 5.4911,14.78369 9.2926,21.54195 18.1628,27.87782 l -8.44781,21.11957 c -9.71499,0.42238 -20.69718,0.84477 -31.256937,7.60304 v 21.96434 c 10.559757,6.75826 21.541947,7.18065 31.256937,7.60304 l 8.44781,21.11956 c -8.8702,6.33587 -12.6717,13.09413 -18.1628,27.87782 l 15.62847,15.62847 c 14.78369,-5.49109 21.54195,-9.2926 27.87782,-18.16284 l 21.11957,8.44785 c 0.42238,9.71499 0.84477,20.69714 7.60304,31.25694 h 21.96434 c 6.75826,-10.5598 7.18065,-21.54195 7.60304,-31.25694 l 21.11956,-8.44785 c 6.33587,8.87024 13.09413,12.67175 27.87782,18.16284 l 15.62847,-15.62847 c -5.49109,-14.78369 -9.2926,-21.54195 -18.1628,-27.87782 l 8.44781,-21.11956 c 9.71499,-0.42239 20.69718,-0.84478 31.25694,-7.60304 v -21.96434 c -10.55976,-6.75827 -21.54195,-7.18066 -31.25694,-7.60304 l -8.44781,-21.11957 c 8.8702,-6.33587 12.67171,-13.09413 18.1628,-27.87782 l -15.62847,-15.62847 c -14.78369,5.49106 -21.54195,9.2926 -27.87782,18.1628 l -21.11956,-8.44781 c -0.42239,-9.71499 -0.84478,-20.697177 -7.60304,-31.256937 z m -10.98216,70.961727 c 18.5852,0 33.79127,15.20608 33.79127,33.79127 0,18.58523 -15.20607,33.7913 -33.79127,33.7913 -18.58522,0 -33.7913,-15.20607 -33.7913,-33.7913 0,-18.58519 15.20608,-33.79127 33.7913,-33.79127 z"
   style="fill:#8399af;fill-opacity:1;stroke-width:0.422393" /><path
   fill-rule="evenodd"
   clip-rule="evenodd"
   d="m 254.25998,195.35797 c -13.48834,0 -24.42246,10.58715 -24.42246,23.64707 v 16.37108 h 42.26956 v 4.54752 h -61.05603 c -13.48811,0 -24.42238,10.5872 -24.42238,23.64701 v 35.47076 c 0,13.05981 10.93427,23.64677 24.42238,23.64677 h 14.08984 v -20.00871 c 0,-13.05981 10.9343,-23.64737 24.42265,-23.64737 h 45.08711 c 11.41327,0 20.66499,-8.95826 20.66499,-20.00871 v -40.01835 c 0,-13.05992 -10.93383,-23.64707 -24.42214,-23.64707 z m -5.63576,29.10412 c 4.66884,0 8.45363,-3.66484 8.45363,-8.18552 0,-4.52074 -3.78479,-8.18557 -8.45363,-8.18557 -4.66942,0 -8.45421,3.66483 -8.45421,8.18557 0,4.52068 3.78479,8.18552 8.45421,8.18552 z"
   fill="url(#paint0_linear_87_8204)"
   id="path1-0"
   style="fill:url(#paint0_linear_87_8204);stroke:#576aa7;stroke-width:0.535465;stroke-dasharray:none;stroke-opacity:1" /><path
   fill-rule="evenodd"
   clip-rule="evenodd"
   d="m 290.89225,367.25409 c 13.48834,0 24.42276,-10.58695 24.42276,-23.64675 v -16.37129 h -42.26985 v -4.54724 h 61.05627 c 13.48832,0 24.42212,-10.58759 24.42212,-23.6474 v -35.47076 c 0,-13.05981 -10.9338,-23.64687 -24.42212,-23.64687 h -14.08997 v 20.00883 c 0,13.0604 -10.93443,23.64736 -24.42213,23.64736 h -45.08775 c -11.41328,0 -20.66502,8.95823 -20.66502,20.00873 v 40.01864 c 0,13.0598 10.93448,23.64675 24.42216,23.64675 z m 5.63636,-29.10383 c -4.66943,0 -8.45423,3.66444 -8.45423,8.18531 0,4.52085 3.7848,8.18533 8.45423,8.18533 4.66882,0 8.45361,-3.66448 8.45361,-8.18533 0,-4.52087 -3.78479,-8.18531 -8.45361,-8.18531 z"
   fill="url(#paint1_linear_87_8204)"
   id="path2"
   style="fill:url(#paint1_linear_87_8204);stroke:#968f0d;stroke-width:0.535465;stroke-dasharray:none;stroke-opacity:1" /></g>
</svg>
